X:90
T:You're A Grand Old Flag!
M:4/4
L:1/4
Q:1/4=120
C:George M. Cohan
R:march
Z:Jim & Jean
S:Jim Coon to CoMandoList TOW
K:G
d/B/|"G"GGG  E/D/| G/A F/G E/D/|G E/D/G E/D/|"D7"F3 D/E/|!
FGA3/2D/|"G"GAB3/2 G/|"A7"A/B G/A/B G/|"D7"A3 d/B/|!
"G"GGG  E/D/| G/A F/G F/=F/|
"E7"E^G/F/E  B|"A7"A3 "D7"D/D/|!
"G"G3/2F/GB|"D7"A3/2 ^G/ A
D/D/|"C"E/ G E/"D7"GF| "G"G3 :|
W:You're a grand old flag, you're a high flying flag,
W:and forever in peace may  you wave.  You're the
W: Emblem of, the land I love,
W: the home of the, free and the brave.  Every
W: Heart beats true, under Red, White and Blue.
W: Where there's never a boast or brag; "But should
W: Auld acquaintance be forgot," Keep you're eye on the grand old flag.
